tools/download-figma-icons/icons/outlined-large/battery-lifetime.svg

<svg width="64" height="64" viewBox="0 0 64 64" fill="none" xmlns="http://www.w3.org/2000/svg">
<path fill-rule="evenodd" clip-rule="evenodd" d="M46.5 61C47.879 61 49 59.879 49 58.5V11.5C49 10.121 47.879 9 46.5 9H41V3.5C41 3.225 40.775 3 40.5 3H23.5C23.225 3 23 3.225 23 3.5V9H17.5C16.121 9 15 10.121 15 11.5V58.5C15 59.879 16.121 61 17.5 61H46.5ZM44 6H46.5C49.532 6 52 8.468 52 11.5V58.5C52 61.532 49.532 64 46.5 64H17.5C14.468 64 12 61.532 12 58.5V11.5C12 8.468 14.468 6 17.5 6H20V3.5C20 1.57 21.57 0 23.5 0H40.5C42.43 0 44 1.57 44 3.5V6ZM21.0984 50.9004H42.9014C44.0604 50.9004 45.0004 51.8394 45.0004 52.9994V54.9014C45.0004 56.0604 44.0604 57.0004 42.9014 57.0004H21.0984C19.9394 57.0004 19.0004 56.0604 19.0004 54.9014V52.9994C19.0004 51.8394 19.9394 50.9004 21.0984 50.9004ZM42.9014 40.9004H21.0984C19.9394 40.9004 19.0004 41.8394 19.0004 42.9994V44.9014C19.0004 46.0604 19.9394 47.0004 21.0984 47.0004H42.9014C44.0604 47.0004 45.0004 46.0604 45.0004 44.9014V42.9994C45.0004 41.8394 44.0604 40.9004 42.9014 40.9004ZM21.0984 30.9004H42.9014C44.0604 30.9004 45.0004 31.8394 45.0004 32.9994V34.9014C45.0004 36.0604 44.0604 37.0004 42.9014 37.0004H21.0984C19.9394 37.0004 19.0004 36.0604 19.0004 34.9014V32.9994C19.0004 31.8394 19.9394 30.9004 21.0984 30.9004Z" fill="black"/>
</svg>

<svg xmlns="http://www.w3.org/2000/svg" width="64" height="64" fill="none" viewBox="0 0 64 64"><path fill="currentColor" fill-rule="evenodd" d="M46.5 61c1.379 0 2.5-1.121 2.5-2.5v-47c0-1.379-1.121-2.5-2.5-2.5H41V3.5c0-.275-.225-.5-.5-.5h-17c-.275 0-.5.225-.5.5V9h-5.5a2.5 2.5 0 0 0-2.5 2.5v47c0 1.379 1.121 2.5 2.5 2.5zM44 6h2.5c3.032 0 5.5 2.468 5.5 5.5v47c0 3.032-2.468 5.5-5.5 5.5h-29a5.507 5.507 0 0 1-5.5-5.5v-47C12 8.468 14.468 6 17.5 6H20V3.5C20 1.57 21.57 0 23.5 0h17C42.43 0 44 1.57 44 3.5zM21.098 50.9h21.803c1.16 0 2.1.94 2.1 2.1v1.9a2.1 2.1 0 0 1-2.1 2.1H21.098A2.1 2.1 0 0 1 19 54.9V53c0-1.16.94-2.099 2.098-2.099m21.803-10H21.098A2.1 2.1 0 0 0 19 43v1.9c0 1.16.94 2.1 2.098 2.1h21.803a2.1 2.1 0 0 0 2.1-2.1V43c0-1.16-.94-2.099-2.1-2.099m-21.803-10h21.803c1.16 0 2.1.94 2.1 2.1V34.9a2.1 2.1 0 0 1-2.1 2.1H21.098A2.1 2.1 0 0 1 19 34.9V33c0-1.16.94-2.099 2.098-2.099" clip-rule="evenodd"/></svg>
